X:1
T:Title
%%score ( 1 2 ) ( 3 4 ) ( 5 6 )
L:1/8
Q:1/4=120
M:4/4
K:C
V:1 treble nm="Picked Bass, Soprano Voice"
V:2 treble 
V:3 bass nm="Picked Bass, Tenor Voice"
V:4 bass 
V:5 bass nm="Picked Bass, Baritone Voice"
V:6 bass 
V:1
 z8 | c4 f4 | .f2 f2 c4 | A2 c2 d4 | d2 dc c4 | f6 z2 | c2 z2 G4 | A2 A2 c4 | c2 .c2 c4- | c4 z4 | %10
 f4 c4 | .c2 c2 d2 f2 | c2 A2 c4 | d2 f2 d2 .c2 | c4 f4 | c4 c2 .A2 | A2 c2 .d2 d2 | %17
 c4 (3:2:4z A z2 A2- | [Ad]2 c6 | f4 c4 | .c2 c2 A4 | A2 c2 d4 | d2 f2 d2 .c2 | c4 f4 | c4 c2 .d2 | %25
 d2 c2 d2 f2 | .c2 .c2 c4- | c4 z4 |] %28
V:2
 x8 | x8 | x8 | x8 | x8 | z4 c4 | z2 A4 z2 | x8 | x8 | x8 | x8 | x8 | x8 | x8 | x8 | x8 | x8 | x8 | %18
 x8 | x8 | x8 | x8 | x8 | x8 | x8 | x8 | x8 | x8 |] %28
V:3
 z8 | F,4 C4 | .C2 C2 C4 | A,2 z2 D4 | D2 F2 .E2 .C2 | C4 F4 | z4 C4- | C2[K:bass] z2 z4 | %8
 G,2 .A,2 F,4- | F,4 z4 | C4 F4 | A2 F2 D2 .C2 | z4 F4- | F2 F4 z2 | C4 z4 | F6 D2 | %16
 z2[K:bass] A,4 z2 | (5:4:4F,3 G,3 A,2 F,2 | A,2[K:treble] C6 | z4 F4 | A2 F2 D2 .C2 | .C2 CD F4 | %22
 (3:2:2A2 F4 z2 .C2 | z4 C4- | C2 z2 z2 D2- | D2[K:bass] z2 z4 | .[C,G,]2 .[C,G,]2 F,4- | F,4 z4 |] %28
V:4
 x8 | x8 | x8 | z2 F,4 z2 | x8 | x8 | E2 D2 z4 | A,2[K:bass] F,2 G,2 F,2 | x8 | x8 | x8 | x8 | %12
 C2 D2 z4 | A4 D2 .C2 | z4 C4- | C2 z2 E4 | C2[K:bass] z2 F,2- [F,G,]2 | x8 | x2[K:treble] x6 | %19
 C6 z2 | x8 | x8 | z4 D4 | C4 z4 | F4- [EF]2 z2 | C2[K:bass] A,2 (3:2:2F,4 C2 | x8 | x8 |] %28
V:5
 z8 | F,2 z2 F,4 | .F,2 .F,2 F,4 | D,2 F,2 D,4 | .D,2 D,2 .C,2 .F,2 | F,4 F,4 | C,2 D,2 C,4 | %7
 z2 F,2 C,4 | .C,2 C,2 F,4- | F,4 z4 | F,4 F,4 | .F,2 .F,2 D,4 | .C,2 .C,2 F,4 | .D,2 .D,2 z4 | %14
 C,4 F,4 | F,4 C,2 D,2 | z4 A,4 | F,2 E,2 D,2 F,2 | D,2 z2 C,4 | F,4 A,4 | .A,2 A,2 F,4 | %21
 .F,2 F,2 D,4 | .D,2 D,2 C,4 | C,4 F,4 | F,4 A,2 .G,2 | G,2 A,2 .F,2 .F,2 | .C,2 .C,2 F,4- | %27
 F,4 z4 |] %28
V:6
 x8 | x8 | x8 | x8 | x8 | x8 | x8 | D,4 z4 | x8 | x8 | x8 | x8 | x8 | z4 D,4- | D,2 z2 z4 | x8 | %16
 F,4 z2 G,2 | x8 | x8 | x8 | x8 | x8 | x8 | x8 | x8 | x8 | x8 | x8 |] %28

